module-11/build/images/about/prev.svg

<svg xmlns="http://www.w3.org/2000/svg" width="8" height="14"><path fill-rule="evenodd" fill="#DDD" d="M8 1.164a.464.464 0 00-.137-.323L7.175.14A.468.468 0 006.859 0a.468.468 0 00-.316.14L.137 6.677A.489.489 0 000 7c0 .112.055.238.137.322l6.406 6.537a.465.465 0 00.316.141c.11 0 .234-.056.316-.141l.688-.701A.49.49 0 008 12.835a.488.488 0 00-.137-.322L2.46 7l5.403-5.513A.493.493 0 008 1.164z"/></svg>

<svg 
 xmlns="http://www.w3.org/2000/svg"
 xmlns:xlink="http://www.w3.org/1999/xlink"
 width="8px" height="14px">
<path fill-rule="evenodd"  fill="rgb(221, 221, 221)"
 d="M8.000,1.164 C8.000,1.037 7.945,0.926 7.863,0.841 L7.175,0.140 C7.093,0.056 6.969,-0.000 6.859,-0.000 C6.749,-0.000 6.625,0.056 6.543,0.140 L0.137,6.677 C0.055,6.761 -0.000,6.887 -0.000,7.000 C-0.000,7.112 0.055,7.238 0.137,7.322 L6.543,13.859 C6.625,13.944 6.749,14.000 6.859,14.000 C6.969,14.000 7.093,13.944 7.175,13.859 L7.863,13.158 C7.945,13.074 8.000,12.947 8.000,12.835 C8.000,12.723 7.945,12.597 7.863,12.513 L2.460,7.000 L7.863,1.487 C7.945,1.402 8.000,1.276 8.000,1.164 Z"/>
</svg>
